src/assets/icons/bell.svg

<svg width="137" height="170" viewBox="0 0 137 170" fill="none" xmlns="http://www.w3.org/2000/svg">
<path d="M0 144.5V131.75H17.125V67.15C17.125 55.25 20.657 44.5896 27.7211 35.1688C34.7852 25.7479 44.0969 19.8333 55.6562 17.425V12.75C55.6562 9.20833 56.9049 6.19792 59.4023 3.71875C61.8997 1.23958 64.9323 0 68.5 0C72.0677 0 75.1003 1.23958 77.5977 3.71875C80.0951 6.19792 81.3438 9.20833 81.3438 12.75V17.425C92.9031 19.8333 102.215 25.7479 109.279 35.1688C116.343 44.5896 119.875 55.25 119.875 67.15V131.75H137V144.5H0ZM68.5 170C63.7906 170 59.7591 168.335 56.4055 165.006C53.0518 161.677 51.375 157.675 51.375 153H85.625C85.625 157.675 83.9482 161.677 80.5945 165.006C77.2409 168.335 73.2094 170 68.5 170ZM29.9688 131.75H107.031V67.15C107.031 56.525 103.285 47.4938 95.793 40.0563C88.3008 32.6188 79.2031 28.9 68.5 28.9C57.7969 28.9 48.6992 32.6188 41.207 40.0563C33.7148 47.4938 29.9688 56.525 29.9688 67.15V131.75Z" fill="currentColor"/>
</svg>

<svg xmlns="http://www.w3.org/2000/svg" viewBox="0 0 137 170"><path fill="evenodd" d="M0 144.5v-12.75h17.125v-64.6q0-17.85 10.596-31.981t27.935-17.744V12.75q0-5.313 3.746-9.031Q63.148-.001 68.5 0q5.352 0 9.098 3.719t3.746 9.031v4.675q17.34 3.612 27.935 17.744 10.596 14.13 10.596 31.981v64.6H137v12.75zM68.5 170q-7.064 0-12.094-4.994-5.031-4.994-5.031-12.006h34.25q0 7.012-5.03 12.006T68.5 170m-38.531-38.25h77.062v-64.6q0-15.937-11.238-27.094Q84.555 28.9 68.5 28.9q-16.054 0-27.293 11.156Q29.969 51.213 29.969 67.15z"/></svg>
